X: 193
T: Title Unknown Jig
T: Jig, G
L: 1/16
M: 6/8
K: G
|: E2| D2B,2D2 G2B2d2| c2B2A2 G2A2B2| c2e2d2 c2B2A2| B2G2A2 B2G2E2| D2B,2D2 G2B2d2| c2B2A2 G2A2B2| c2e2d2 c2B2A2| B2G2G2 G4:| 
|: c2| d2e2f2 g2a2g2| b2e2f2 g2d2c2| d2b2a2 b2e2f2| g2d2B2 A2c2E2| D2B,2D2 G2B2d2| c2B2A2 G2A2B2| c2e2d2 c2B2A2| B2G2G2 G4:| 
D: Kinnon and Betty Beaton, Saturday Night Lively, KB20M98
